static/assets/template/assets/img/icons/essential/detailed/Justice.svg

<svg height="122" viewBox="0 0 151 122" width="151" xmlns="http://www.w3.org/2000/svg"><g fill="none" fill-rule="evenodd" transform="translate(1)"><g stroke-linecap="round" stroke-linejoin="round" stroke-width="2.2722" transform="translate(0 120)"><path d="m1.7.1h-1"/><path d="m24.3.1h-18.5"/><path d="m29.6.1h-.9"/><path d="m112.5.1h-77.3"/><path d="m148.7.1h-31.8"/></g><g fill-rule="nonzero" transform="translate(2)"><path d="m76.4 46.1 7.2 7.2-.4.4c-2.2 2.2-2.2 5.9 0 8.1s5.9 2.2 8.1 0l21-21c2.2-2.2 2.2-5.9 0-8.1s-5.9-2.2-8.1 0l.1-.2-21.9-21.9-.1.1c2.2-2.2 2.2-5.9 0-8.1-2.2-2.2-5.9-2.2-8.1 0l-21 21c-2.2 2.2-2.2 5.9 0 8.1s5.9 2.2 8.1 0l.4-.4 7.2 7.2-37.2 37.2c-.8.8-2.2.8-3 0l-27.2 27.2c-1.9 1.9-1.9 4.9 0 6.8l3.7 3.7c1.9 1.9 4.9 1.9 6.8 0l27.2-27.2c-.8-.8-.8-2.2 0-3z"/><path d="m135.3 107.4h-1.8c-1.8 0-3.3-1.5-3.3-3.3 0-2.4-1.9-4.3-4.3-4.3h-53.3c-2.4 0-4.3 1.9-4.3 4.3 0 1.8-1.5 3.3-3.3 3.3h-2c-1.9 0-3.6.8-4.8 2s-2 2.9-2 4.8c0 3.8 3.2 6.8 7 6.8h72.3c1.9 0 3.6-.8 4.8-2s2-2.9 2-4.8c0-3.9-3.2-6.8-7-6.8z"/></g><g fill-rule="nonzero" transform="translate(2 1)"><path d="m112.2 39.9-21 21c-1.1 1.1-2.6 1.7-4 1.7-1.5 0-2.9-.6-4-1.7-2.2-2.2-2.2-5.9 0-8.1l.4-.4-2.1-2.1-5.1-5.1-37.2 37.2c-.8.8-.8 2.2 0 3l-27.2 27.2c-1.9 1.9-4.9 1.9-6.8 0l-3.7-3.7c-.4-.4-.7-.8-.9-1.3-.9-1.8-.5-4 .9-5.5l27.2-27.2c.8.8 2.2.8 3 0l36.9-36.9.3-.3-.2-.2-7-7-.4.4c-1.5 1.5-3.7 2-5.6 1.5-.9-.3-1.8-.7-2.5-1.5-2.2-2.2-2.2-5.9 0-8.1l21-21c2.2-2.2 5.9-2.2 8.1 0 1 1.1 1.6 2.4 1.7 3.8.1 1.6-.5 3.1-1.7 4.3l.1-.1 3 3 18.9 18.9-.1.1c1.1-1.1 2.6-1.7 4-1.7 1.5 0 2.9.6 4 1.7 2.3 2.2 2.3 5.8 0 8.1z"/><path d="m39.3 82.3c-.8.8-.8 2.2 0 3l-27.2 27.2c-1.9 1.9-4.9 1.9-6.8 0l-3.7-3.7c-.4-.4-.7-.8-.9-1.3 7.5.4 22.7-10.4 30.6-20 9.7-11.9 41.1-42.4 41.1-42.4s-4.3-4.3-3.8-7.1c0-.1.1-.3.1-.4 1.5 1.6 4.8 4.9 7.6 7.7z"/><path d="m85.4 12.7s-.1.1 0 0l-20.7 20.7-3-3-.4.4c-1.5 1.5-3.7 2-5.6 1.5-.3-1.4.1-2.9 1.2-3.9l22-22c1.4-1.4 3.4-1.6 5.1-.8.1 1.6-.5 3.1-1.7 4.3l.1-.1z"/><path d="m135.5 106.7h-1.7c-1.8 0-3.2-.5-3.2-2.2 0-2.2-1.9-3.9-4.2-3.9h-51.8c-2.3 0-4.2 1.8-4.2 3.9 0 1.7-1.4 3-3.2 3h-1.9c-1.8 0-3.5.7-4.7 1.8s-1.9 2.7-1.9 4.4c0 3.4 3.1 6.1 6.8 6.1h70.2c1.8 0 3.5-.7 4.7-1.8s1.9-2.7 1.9-4.4c0-3.3-3.2-6.9-6.8-6.9z"/></g><path d="m78.4 46.1-14.7-14.7 20.6-20.5" stroke-linecap="round" stroke-linejoin="round" stroke-width="2.2722"/><path d="m88.6 14.9 17.7 17.7-20.7 20.7-3-3" stroke-linecap="round" stroke-linejoin="round" stroke-width="2.2722"/><path d="m84.7 10.5-21.9 21.9c-2 2-5.1 2-7.1 0l-1-1c-2-2-2-5.1 0-7.1l21.9-21.9c2-2 5.1-2 7.1 0l1 1c2 1.9 2 5.1 0 7.1z" fill-rule="nonzero"/><path d="m84.8 10.4-22 22c-1.7 1.7-4.4 1.7-6.1 0l-.3-.3c-.5-.5-.8-1-1-1.6-.5-1.5-.2-3.3 1-4.5l22-22c1.4-1.4 3.7-1.7 5.3-.6.3.2.5.4.8.6l.3.3c1.7 1.7 1.7 4.4 0 6.1z" fill-rule="nonzero"/><path d="m82.6 7.9-22 22c-1.4 1.4-3.7 1.7-5.3.6-.5-1.5-.2-3.3 1-4.5l22-22c1.4-1.4 3.7-1.7 5.3-.6.6 1.5.3 3.2-1 4.5z" fill-rule="nonzero"/><path d="m116.3 36.4c0 1.5-.6 2.9-1.7 4l-21 21c-2.2 2.2-5.9 2.2-8.1 0-.4-.4-.7-.8-.9-1.2-.5-.9-.7-1.8-.7-2.8 0-1.5.6-2.9 1.7-4l21-21c1.6-1.6 4-2.1 6.1-1.3.7.3 1.4.7 2 1.3 1.1 1.1 1.6 2.5 1.6 4z" fill-rule="nonzero"/><path d="m113.4 33.8c0 1.5-.6 2.9-1.7 4l-21 21c-1.6 1.6-4 2.1-6.1 1.3-.5-.9-.7-1.8-.7-2.8 0-1.5.6-2.9 1.7-4l21-21c1.6-1.6 4-2.1 6.1-1.3.4.9.7 1.9.7 2.8z" fill-rule="nonzero"/><g stroke-linecap="round" stroke-linejoin="round" stroke-width="2.2722"><path d="m68.9 10.1 1.2-1.2"/><path d="m72.4 6.6 3.8-3.8c2.2-2.2 5.9-2.2 8.1 0s2.2 5.9 0 8.1l-21 21c-2.2 2.2-5.9 2.2-8.1 0s-2.2-5.9 0-8.1l8.8-8.8"/><path d="m90.1 48.8 16-16c2.2-2.2 5.9-2.2 8.1 0s2.2 5.9 0 8.1l-21 21c-2.2 2.2-5.9 2.2-8.1 0s-2.2-5.9 0-8.1z"/><path d="m61.1 48.5 9.8-9.9"/><path d="m54.1 55.5 3-3"/><path d="m78.4 46.1-37.2 37.2c-.8.8-.8 2.2 0 3l-27.2 27.2c-1.9 1.9-4.9 1.9-6.8 0l-3.7-3.7c-1.9-1.9-1.9-4.9 0-6.8l27.2-27.2c.8.8 2.2.8 3 0l13.2-13.2"/><path d="m94.4 98.9h33.5c2.4 0 4.3 1.9 4.3 4.3 0 1.8 1.5 3.3 3.3 3.3h1.8c3.8 0 7 3 7 6.8 0 1.9-.8 3.6-2 4.8s-2.9 2-4.8 2h-72.3c-3.8 0-7-3-7-6.8 0-1.9.8-3.6 2-4.8s2.9-2 4.8-2h2c1.8 0 3.3-1.5 3.3-3.3 0-2.4 1.9-4.3 4.3-4.3h1.8"/><path d="m81.1 98.9h4.1"/><path d="m85.2 106.5h-3.1"/><path d="m136.3 106.5h-46.6"/></g></g></svg>

<?xml version="1.0" encoding="UTF-8"?>
<svg width="151px" height="122px" viewBox="0 0 151 122" version="1.1" xmlns="http://www.w3.org/2000/svg" xmlns:xlink="http://www.w3.org/1999/xlink">
    <!-- Generator: Sketch 51.2 (57519) - http://www.bohemiancoding.com/sketch -->
    <title>Justice</title>
    <desc>Created with Sketch.</desc>
    <defs></defs>
    <g id="Page-1" stroke="none" stroke-width="1" fill="none" fill-rule="evenodd">
        <g id="Justice" transform="translate(1.000000, 0.000000)">
            <g id="Group" transform="translate(0.000000, 120.000000)" class="stroke-primary-300" stroke-linecap="round" stroke-linejoin="round" stroke-width="2.2722">
                <path d="M1.7,0.1 L0.7,0.1" id="Shape"></path>
                <path d="M24.3,0.1 L5.8,0.1" id="Shape"></path>
                <path d="M29.6,0.1 L28.7,0.1" id="Shape"></path>
                <path d="M112.5,0.1 L35.2,0.1" id="Shape"></path>
                <path d="M148.7,0.1 L116.9,0.1" id="Shape"></path>
            </g>
            <g id="Group" transform="translate(2.000000, 0.000000)" class="fill-neutral" fill-rule="nonzero">
                <path d="M76.4,46.1 L83.6,53.3 L83.2,53.7 C81,55.9 81,59.6 83.2,61.8 C85.4,64 89.1,64 91.3,61.8 L112.3,40.8 C114.5,38.6 114.5,34.9 112.3,32.7 C110.1,30.5 106.4,30.5 104.2,32.7 L104.3,32.5 L82.4,10.6 L82.3,10.7 C84.5,8.5 84.5,4.8 82.3,2.6 C80.1,0.4 76.4,0.4 74.2,2.6 L53.2,23.6 C51,25.8 51,29.5 53.2,31.7 C55.4,33.9 59.1,33.9 61.3,31.7 L61.7,31.3 L68.9,38.5 L31.7,75.7 C30.9,76.5 29.5,76.5 28.7,75.7 L1.5,102.9 C-0.4,104.8 -0.4,107.8 1.5,109.7 L5.2,113.4 C7.1,115.3 10.1,115.3 12,113.4 L39.2,86.2 C38.4,85.4 38.4,84 39.2,83.2 L76.4,46.1 Z" id="Shape"></path>
                <path d="M135.3,107.4 L133.5,107.4 C131.7,107.4 130.2,105.9 130.2,104.1 C130.2,101.7 128.3,99.8 125.9,99.8 L72.6,99.8 C70.2,99.8 68.3,101.7 68.3,104.1 C68.3,105.9 66.8,107.4 65,107.4 L63,107.4 C61.1,107.4 59.4,108.2 58.2,109.4 C57,110.6 56.2,112.3 56.2,114.2 C56.2,118 59.4,121 63.2,121 L135.5,121 C137.4,121 139.1,120.2 140.3,119 C141.5,117.8 142.3,116.1 142.3,114.2 C142.3,110.3 139.1,107.4 135.3,107.4 Z" id="Shape"></path>
            </g>
            <g id="Group" transform="translate(2.000000, 1.000000)" fill-rule="nonzero">
                <path d="M112.2,39.9 L91.2,60.9 C90.1,62 88.6,62.6 87.2,62.6 C85.7,62.6 84.3,62 83.2,60.9 C81,58.7 81,55 83.2,52.8 L83.6,52.4 L81.5,50.3 L76.4,45.2 L39.2,82.4 C38.4,83.2 38.4,84.6 39.2,85.4 L12,112.6 C10.1,114.5 7.1,114.5 5.2,112.6 L1.5,108.9 C1.1,108.5 0.8,108.1 0.6,107.6 C-0.3,105.8 0.1,103.6 1.5,102.1 L28.7,74.9 C29.5,75.7 30.9,75.7 31.7,74.9 L68.6,38 L68.9,37.7 L68.7,37.5 L61.7,30.5 L61.3,30.9 C59.8,32.4 57.6,32.9 55.7,32.4 C54.8,32.1 53.9,31.7 53.2,30.9 C51,28.7 51,25 53.2,22.8 L74.2,1.8 C76.4,-0.4 80.1,-0.4 82.3,1.8 C83.3,2.9 83.9,4.2 84,5.6 C84.1,7.2 83.5,8.7 82.3,9.9 L82.4,9.8 L85.4,12.8 L104.3,31.7 L104.2,31.8 C105.3,30.7 106.8,30.1 108.2,30.1 C109.7,30.1 111.1,30.7 112.2,31.8 C114.5,34 114.5,37.6 112.2,39.9 Z" id="Shape" class="fill-primary-100"></path>
                <path d="M39.3,82.3 C38.5,83.1 38.5,84.5 39.3,85.3 L12.1,112.5 C10.2,114.4 7.2,114.4 5.3,112.5 L1.6,108.8 C1.2,108.4 0.9,108 0.7,107.5 C8.2,107.9 23.4,97.1 31.3,87.5 C41,75.6 72.4,45.1 72.4,45.1 C72.4,45.1 68.1,40.8 68.6,38 C68.6,37.9 68.7,37.7 68.7,37.6 C70.2,39.2 73.5,42.5 76.3,45.3 L39.3,82.3 Z" id="Shape" class="fill-primary-200"></path>
                <path d="M85.4,12.7 C85.4,12.7 85.3,12.8 85.4,12.7 L64.7,33.4 L61.7,30.4 L61.3,30.8 C59.8,32.3 57.6,32.8 55.7,32.3 C55.4,30.9 55.8,29.4 56.9,28.4 L78.9,6.4 C80.3,5 82.3,4.8 84,5.6 C84.1,7.2 83.5,8.7 82.3,9.9 L82.4,9.8 L85.4,12.7 Z" id="Shape" class="fill-primary-200"></path>
                <path d="M135.5,106.7 L133.8,106.7 C132,106.7 130.6,106.2 130.6,104.5 C130.6,102.3 128.7,100.6 126.4,100.6 L74.6,100.6 C72.3,100.6 70.4,102.4 70.4,104.5 C70.4,106.2 69,107.5 67.2,107.5 L65.3,107.5 C63.5,107.5 61.8,108.2 60.6,109.3 C59.4,110.4 58.7,112 58.7,113.7 C58.7,117.1 61.8,119.8 65.5,119.8 L135.7,119.8 C137.5,119.8 139.2,119.1 140.4,118 C141.6,116.9 142.3,115.3 142.3,113.6 C142.3,110.3 139.1,106.7 135.5,106.7 Z" id="Shape" class="fill-primary-400"></path>
            </g>
            <polyline id="Shape" class="stroke-primary" stroke-width="2.2722" stroke-linecap="round" stroke-linejoin="round" points="78.4 46.1 63.7 31.4 84.3 10.9"></polyline>
            <polyline id="Shape" class="stroke-primary" stroke-width="2.2722" stroke-linecap="round" stroke-linejoin="round" points="88.6 14.9 106.3 32.6 85.6 53.3 82.6 50.3"></polyline>
            <path d="M84.7,10.5 L62.8,32.4 C60.8,34.4 57.7,34.4 55.7,32.4 L54.7,31.4 C52.7,29.4 52.7,26.3 54.7,24.3 L76.6,2.4 C78.6,0.4 81.7,0.4 83.7,2.4 L84.7,3.4 C86.7,5.3 86.7,8.5 84.7,10.5 Z" id="Shape" class="fill-neutral" fill-rule="nonzero"></path>
            <path d="M84.8,10.4 L62.8,32.4 C61.1,34.1 58.4,34.1 56.7,32.4 L56.4,32.1 C55.9,31.6 55.6,31.1 55.4,30.5 C54.9,29 55.2,27.2 56.4,26 L78.4,4 C79.8,2.6 82.1,2.3 83.7,3.4 C84,3.6 84.2,3.8 84.5,4 L84.8,4.3 C86.5,6 86.5,8.7 84.8,10.4 Z" id="Shape" class="fill-primary-200" fill-rule="nonzero"></path>
            <path d="M82.6,7.9 L60.6,29.9 C59.2,31.3 56.9,31.6 55.3,30.5 C54.8,29 55.1,27.2 56.3,26 L78.3,4 C79.7,2.6 82,2.3 83.6,3.4 C84.2,4.9 83.9,6.6 82.6,7.9 Z" id="Shape" class="fill-primary-100" fill-rule="nonzero"></path>
            <path d="M116.3,36.4 C116.3,37.9 115.7,39.3 114.6,40.4 L93.6,61.4 C91.4,63.6 87.7,63.6 85.5,61.4 C85.1,61 84.8,60.6 84.6,60.2 C84.1,59.3 83.9,58.4 83.9,57.4 C83.9,55.9 84.5,54.5 85.6,53.4 L106.6,32.4 C108.2,30.8 110.6,30.3 112.7,31.1 C113.4,31.4 114.1,31.8 114.7,32.4 C115.8,33.5 116.3,34.9 116.3,36.4 Z" id="Shape" class="fill-primary-200" fill-rule="nonzero"></path>
            <path d="M113.4,33.8 C113.4,35.3 112.8,36.7 111.7,37.8 L90.7,58.8 C89.1,60.4 86.7,60.9 84.6,60.1 C84.1,59.2 83.9,58.3 83.9,57.3 C83.9,55.8 84.5,54.4 85.6,53.3 L106.6,32.3 C108.2,30.7 110.6,30.2 112.7,31 C113.1,31.9 113.4,32.9 113.4,33.8 Z" id="Shape" class="fill-primary-100" fill-rule="nonzero"></path>
            <path d="M68.9,10.1 L70.1,8.9" id="Shape" class="stroke-primary" stroke-width="2.2722" stroke-linecap="round" stroke-linejoin="round"></path>
            <path d="M72.4,6.6 L76.2,2.8 C78.4,0.6 82.1,0.6 84.3,2.8 C86.5,5 86.5,8.7 84.3,10.9 L63.3,31.9 C61.1,34.1 57.4,34.1 55.2,31.9 C53,29.7 53,26 55.2,23.8 L64,15" id="Shape" class="stroke-primary" stroke-width="2.2722" stroke-linecap="round" stroke-linejoin="round"></path>
            <path d="M90.1,48.8 L106.1,32.8 C108.3,30.6 112,30.6 114.2,32.8 C116.4,35 116.4,38.7 114.2,40.9 L93.2,61.9 C91,64.1 87.3,64.1 85.1,61.9 C82.9,59.7 82.9,56 85.1,53.8 L90.1,48.8" id="Shape" class="stroke-primary" stroke-width="2.2722" stroke-linecap="round" stroke-linejoin="round"></path>
            <path d="M61.1,48.5 L70.9,38.6" id="Shape" class="stroke-primary" stroke-width="2.2722" stroke-linecap="round" stroke-linejoin="round"></path>
            <path d="M54.1,55.5 L57.1,52.5" id="Shape" class="stroke-primary" stroke-width="2.2722" stroke-linecap="round" stroke-linejoin="round"></path>
            <path d="M78.4,46.1 L41.2,83.3 C40.4,84.1 40.4,85.5 41.2,86.3 L14,113.5 C12.1,115.4 9.1,115.4 7.2,113.5 L3.5,109.8 C1.6,107.9 1.6,104.9 3.5,103 L30.7,75.8 C31.5,76.6 32.9,76.6 33.7,75.8 L46.9,62.6" id="Shape" class="stroke-primary" stroke-width="2.2722" stroke-linecap="round" stroke-linejoin="round"></path>
            <path d="M94.4,98.9 L127.9,98.9 C130.3,98.9 132.2,100.8 132.2,103.2 C132.2,105 133.7,106.5 135.5,106.5 L137.3,106.5 C141.1,106.5 144.3,109.5 144.3,113.3 C144.3,115.2 143.5,116.9 142.3,118.1 C141.1,119.3 139.4,120.1 137.5,120.1 L65.2,120.1 C61.4,120.1 58.2,117.1 58.2,113.3 C58.2,111.4 59,109.7 60.2,108.5 C61.4,107.3 63.1,106.5 65,106.5 L67,106.5 C68.8,106.5 70.3,105 70.3,103.2 C70.3,100.8 72.2,98.9 74.6,98.9 L76.4,98.9" id="Shape" class="stroke-primary" stroke-width="2.2722" stroke-linecap="round" stroke-linejoin="round"></path>
            <path d="M81.1,98.9 L85.2,98.9" id="Shape" class="stroke-primary" stroke-width="2.2722" stroke-linecap="round" stroke-linejoin="round"></path>
            <path d="M85.2,106.5 L82.1,106.5" id="Shape" class="stroke-primary" stroke-width="2.2722" stroke-linecap="round" stroke-linejoin="round"></path>
            <path d="M136.3,106.5 L89.7,106.5" id="Shape" class="stroke-primary" stroke-width="2.2722" stroke-linecap="round" stroke-linejoin="round"></path>
        </g>
    </g>
</svg>
